public/images/quot.svg

<svg fill="none" height="23" viewBox="0 0 25 23" width="25" xmlns="http://www.w3.org/2000/svg"><path d="m20.8125 11.5v-.5h-.5-3.9063c-1.0178 0-1.8437-.8259-1.8437-1.84375v-6.25c0-1.0178.8259-1.84375 1.8437-1.84375h6.25c1.0179 0 1.8438.82595 1.8438 1.84375v11.71875c0 4.0403-3.2722 7.3125-7.3125 7.3125h-.3906c-.3733 0-.6719-.2986-.6719-.6719v-2.3437c0-.3733.2986-.6719.6719-.6719h.3906c1.9998 0 3.625-1.6252 3.625-3.625zm-14.0625 0v-.5h-.5-3.90625c-1.0178 0-1.84375-.8259-1.84375-1.84375v-6.25c0-1.0178.82595-1.84375 1.84375-1.84375h6.25c1.0178 0 1.84375.82595 1.84375 1.84375v11.71875c0 4.0403-3.27224 7.3125-7.3125 7.3125h-.39062c-.37328 0-.67188-.2986-.67188-.6719v-2.3437c0-.3733.2986-.6719.67188-.6719h.39062c1.99977 0 3.625-1.6252 3.625-3.625z" stroke="#e08631"/></svg>

<svg width="25" height="23" viewBox="0 0 25 23" fill="none" xmlns="http://www.w3.org/2000/svg">
<path d="M20.8125 11.5V11H20.3125H16.4062C15.3884 11 14.5625 10.1741 14.5625 9.15625V2.90625C14.5625 1.88845 15.3884 1.0625 16.4062 1.0625H22.6562C23.6741 1.0625 24.5 1.88845 24.5 2.90625V14.625C24.5 18.6653 21.2278 21.9375 17.1875 21.9375H16.7969C16.4236 21.9375 16.125 21.6389 16.125 21.2656V18.9219C16.125 18.5486 16.4236 18.25 16.7969 18.25H17.1875C19.1873 18.25 20.8125 16.6248 20.8125 14.625V11.5ZM6.75 11.5V11H6.25H2.34375C1.32595 11 0.5 10.1741 0.5 9.15625V2.90625C0.5 1.88845 1.32595 1.0625 2.34375 1.0625H8.59375C9.61155 1.0625 10.4375 1.88845 10.4375 2.90625V14.625C10.4375 18.6653 7.16526 21.9375 3.125 21.9375H2.73438C2.3611 21.9375 2.0625 21.6389 2.0625 21.2656V18.9219C2.0625 18.5486 2.3611 18.25 2.73438 18.25H3.125C5.12477 18.25 6.75 16.6248 6.75 14.625V11.5Z" stroke="#E08631"/>
</svg>
